X:23
T:The Affectionate Soldier %Two alternative titles are illegible
S:John Moore's Book 1
Z:Transcribed by Paul Barber-Riley  April 2016
M:C|
L:1/8
K:G
F:http://www.vwml.org/record/Moore1/4493/p14
G2 G>A BG ce|{e}d2F2G2zA|d>^c d>e f>g |f2d2 z|  %3rd bar largely illegible. This is best guess
g2dB e2 AB|cBAG{G} F2GA|BG ce ed FA|G3:|

